icons/CLion-Dark.svg

<svg width="256" height="256" viewBox="0 0 256 256" fill="none" xmlns="http://www.w3.org/2000/svg">
<g clip-path="url(#clip0_45_439)">
<path d="M196 0H60C26.8629 0 0 26.8629 0 60V196C0 229.137 26.8629 256 60 256H196C229.137 256 256 229.137 256 196V60C256 26.8629 229.137 0 196 0Z" fill="#242938"/>
<path d="M105.017 110.067L108.483 47.5L144.867 67.6667L105.017 110.067Z" fill="url(#paint0_linear_45_439)"/>
<path d="M105.017 110.067L108.483 47.5L62.2833 76.6167L47.5 165.133L105.017 110.067Z" fill="url(#paint1_linear_45_439)"/>
<path d="M204.317 95.4501L183.733 53.6001L144.867 67.6668L105.017 110.067L47.5 165.133L99.3833 202.9L164.6 144.083L204.317 95.4501Z" fill="url(#paint2_linear_45_439)"/>
<path d="M177.5 139.233V177.5H114.667L142.283 198.867L182.283 207.5L207.5 150.417L177.5 139.233Z" fill="url(#paint3_linear_45_439)"/>
<path d="M77.5 77.5H177.5V177.5H77.5V77.5Z" fill="black"/>
<path d="M89.9668 158.6H127.467V164.85H89.9668V158.6Z" fill="white"/>
<path d="M127.583 89.9001H135.917V120.55H152.334V127.5H127.583V89.9001Z" fill="white"/>
<path d="M87.3001 108.95V108.85C87.2543 106.255 87.7341 103.678 88.7107 101.273C89.6872 98.8689 91.1403 96.6869 92.9825 94.8587C94.8246 93.0306 97.0176 91.5942 99.4296 90.6361C101.841 89.6779 104.422 89.2178 107.017 89.2834C109.772 89.1477 112.524 89.5974 115.092 90.6029C117.66 91.6084 119.986 93.1468 121.917 95.1167L116.667 101.233C114.124 98.5962 110.646 97.0638 106.983 96.9667C100.617 96.9667 96.0334 102.25 96.0334 108.733V108.85C96.0334 115.333 100.517 120.733 106.983 120.733C111.317 120.733 113.95 119.067 116.983 116.3L122.183 121.667C120.27 123.879 117.879 125.629 115.192 126.784C112.504 127.939 109.589 128.469 106.667 128.333C104.112 128.372 101.575 127.896 99.2066 126.936C96.8385 125.975 94.6876 124.548 92.8813 122.74C91.075 120.933 89.6503 118.78 88.6916 116.411C87.7328 114.043 87.2597 111.505 87.3001 108.95Z" fill="white"/>
</g>
<defs>
<linearGradient id="paint0_linear_45_439" x1="105.017" y1="78.7833" x2="150.85" y2="78.7833" gradientUnits="userSpaceOnUse">
<stop stop-color="#FF318C"/>
<stop offset="0.15" stop-color="#FB348C"/>
<stop offset="0.28" stop-color="#F03C8C"/>
<stop offset="0.42" stop-color="#DE4A8C"/>
<stop offset="0.54" stop-color="#C45D8B"/>
<stop offset="0.67" stop-color="#A2778B"/>
<stop offset="0.79" stop-color="#79958A"/>
<stop offset="0.91" stop-color="#49B98A"/>
<stop offset="1" stop-color="#21D789"/>
</linearGradient>
<linearGradient id="paint1_linear_45_439" x1="86.65" y1="67.8" x2="63.1167" y2="225.7" gradientUnits="userSpaceOnUse">
<stop offset="0.09" stop-color="#21D789"/>
<stop offset="0.9" stop-color="#009AE5"/>
</linearGradient>
<linearGradient id="paint2_linear_45_439" x1="193.417" y1="62.3334" x2="32.45" y2="232.333" gradientUnits="userSpaceOnUse">
<stop offset="0.09" stop-color="#21D789"/>
<stop offset="0.9" stop-color="#009AE5"/>
</linearGradient>
<linearGradient id="paint3_linear_45_439" x1="144.733" y1="168.367" x2="199.783" y2="176.2" gradientUnits="userSpaceOnUse">
<stop offset="0.09" stop-color="#21D789"/>
<stop offset="0.9" stop-color="#009AE5"/>
</linearGradient>
<clipPath id="clip0_45_439">
<rect width="256" height="256" fill="white"/>
</clipPath>
</defs>
</svg>

<svg xmlns="http://www.w3.org/2000/svg" width="256" height="256" fill="none" viewBox="0 0 256 256"><g clip-path="url(#a)"><path fill="#242938" d="M196 0H60A60 60 0 0 0 0 60v136a60 60 0 0 0 60 60h136a60 60 0 0 0 60-60V60a60 60 0 0 0-60-60"/><path fill="url(#b)" d="m105.02 110.07 3.46-62.57 36.39 20.17z"/><path fill="url(#c)" d="m105.02 110.07 3.46-62.57-46.2 29.12-14.78 88.51z"/><path fill="url(#d)" d="M204.32 95.45 183.73 53.6l-38.86 14.07-39.85 42.4-57.52 55.06 51.88 37.77 65.22-58.82z"/><path fill="url(#e)" d="M177.5 139.23v38.27h-62.83l27.61 21.37 40 8.63 25.22-57.08z"/><path fill="#000" d="M77.5 77.5h100v100h-100z"/><path fill="#fff" d="M89.97 158.6h37.5v6.25h-37.5zm37.61-68.7h8.34v30.65h16.41v6.95h-24.75zM87.3 108.95v-.1a19.24 19.24 0 0 1 19.72-19.57 19.5 19.5 0 0 1 14.9 5.84l-5.25 6.11a14 14 0 0 0-9.69-4.26c-6.36 0-10.95 5.28-10.95 11.76v.12c0 6.48 4.49 11.88 10.95 11.88 4.34 0 6.97-1.66 10-4.43l5.2 5.37a19.3 19.3 0 0 1-15.51 6.66 19.1 19.1 0 0 1-19.37-19.38"/></g><defs><linearGradient id="b" x1="105.02" x2="150.85" y1="78.78" y2="78.78" gradientUnits="userSpaceOnUse"><stop stop-color="#FF318C"/><stop offset=".15" stop-color="#FB348C"/><stop offset=".28" stop-color="#F03C8C"/><stop offset=".42" stop-color="#DE4A8C"/><stop offset=".54" stop-color="#C45D8B"/><stop offset=".67" stop-color="#A2778B"/><stop offset=".79" stop-color="#79958A"/><stop offset=".91" stop-color="#49B98A"/><stop offset="1" stop-color="#21D789"/></linearGradient><linearGradient id="c" x1="86.65" x2="63.12" y1="67.8" y2="225.7" gradientUnits="userSpaceOnUse"><stop offset=".09" stop-color="#21D789"/><stop offset=".9" stop-color="#009AE5"/></linearGradient><linearGradient id="d" x1="193.42" x2="32.45" y1="62.33" y2="232.33" gradientUnits="userSpaceOnUse"><stop offset=".09" stop-color="#21D789"/><stop offset=".9" stop-color="#009AE5"/></linearGradient><linearGradient id="e" x1="144.73" x2="199.78" y1="168.37" y2="176.2" gradientUnits="userSpaceOnUse"><stop offset=".09" stop-color="#21D789"/><stop offset=".9" stop-color="#009AE5"/></linearGradient><clipPath id="a"><path fill="#fff" d="M0 0h256v256H0z"/></clipPath></defs></svg>
